X:4303
L:1/8
M:4/4
K:D
 z A (B/c/) | d>c B A d3 B/ B/ | A F E D E2 F G | A A F D G F E>D | D6 A (B/c/) | d c B A d3 B | 
 A F E D E2 F G | A AS F D G F E>D | D6 A G | F A B d c3 A | d c B>A A3 A | B c d f e d c A | 
 A6 A(B/c/) | d c BA d3 B | A F E D E2 F G | AS AS F D G F E>D | D6 ||

